packages/icons/src/SVG/column-chooser-solid.svg

<!-- Generated by IcoMoon.io -->
<svg version="1.1" xmlns="http://www.w3.org/2000/svg" width="12" height="12" viewBox="0 0 12 12">
<title>column-chooser-solid</title>
<path d="M0 12h12v-12h-12v12zM1 2h10v1h-5v1h3v1h-3v1h3v1h-3v1h3v1h-3v2h-1v-8h-4v-1zM1 4h3v1h-3v-1zM4 6v1h-3v-1h3zM4 8v1h-3v-1h3z"></path>
</svg>

<svg width="12" height="12" viewBox="0 0 12 12" >
<path fill-rule="evenodd" clip-rule="evenodd" d="M0 12V0H12V12H0ZM1 2H11V3H6V4H9V5H6V6H9V7H6V8H9V9H6L6 11H5L5 3H1V2ZM1 4H4V5H1V4ZM4 6H1V7H4V6ZM4 8H1V9H4V8Z" />
</svg>
